exports/who-vs-gbd-incidence-of-tetanus_v4_850x600.svg

<svg xmlns="http://www.w3.org/2000/svg" version="1.1" style="background-color:#fff;-webkit-font-smoothing:antialiased" width="850" height="600" font-family="'Helvetica Neue',Helvetica,Arial,sans-serif" font-size="18" text-rendering="optimizeLegibility"><g class="ChartTab"><g class="HeaderView"><g opacity=".8" transform="matrix(.27 0 0 .27 778 15)"><a xmlns:xlink="http://www.w3.org/1999/xlink" xlink:href="https://ourworldindata.org" target="_blank"><g><path fill="#1B2543" d="M0 0h211.2v130.1H0z"/><path fill="#E63912" d="M0 112.2h211.2v17.9H0z"/><g><path fill="none" d="M1.2 12.3h210.2v99.2H1.2z"/><path fill="#FFF" d="M37.8 32.2c0 12.7-7.7 19.4-17.1 19.4-9.7 0-16.6-7.5-16.6-18.7 0-11.7 7.3-19.3 17.1-19.3 10.1.1 16.6 7.7 16.6 18.6zm-28.6.6c0 7.9 4.3 14.9 11.8 14.9 7.5 0 11.8-6.9 11.8-15.3 0-7.3-3.8-14.9-11.8-14.9-7.9 0-11.8 7.3-11.8 15.3zM62.7 43.8c0 2.7.1 5.1.2 7.2h-4.3l-.3-4.3h-.1c-1.3 2.1-4 4.9-8.8 4.9-4.2 0-9.1-2.3-9.1-11.6V24.6h4.8v14.6c0 5 1.5 8.4 5.9 8.4 3.2 0 5.5-2.2 6.3-4.4.3-.7.4-1.6.4-2.5V24.6h4.8v19.2zM67.3 32.8c0-3.1-.1-5.8-.2-8.2h4.2l.2 5.2h.2c1.2-3.5 4.1-5.8 7.3-5.8.5 0 .9.1 1.4.2v4.5c-.5-.1-1-.2-1.6-.2-3.4 0-5.8 2.6-6.5 6.2-.1.7-.2 1.4-.2 2.2V51h-4.8V32.8zM95.4 51L86 14.2h5l4.4 18.6c1.1 4.6 2.1 9.2 2.7 12.7h.1c.6-3.7 1.8-8 3-12.8l4.9-18.5h5l4.5 18.7c1 4.4 2 8.7 2.6 12.6h.1c.8-4 1.8-8.1 3-12.7l4.9-18.5h4.9L120.6 51h-5L111 31.9c-1.1-4.7-1.9-8.3-2.4-12h-.1c-.7 3.7-1.5 7.3-2.8 12L100.4 51h-5zM154.9 37.6c0 9.8-6.8 14-13.2 14-7.2 0-12.7-5.2-12.7-13.6 0-8.8 5.8-14 13.1-14 7.7 0 12.8 5.5 12.8 13.6zm-21 .3c0 5.8 3.3 10.1 8 10.1 4.6 0 8-4.3 8-10.3 0-4.5-2.2-10.1-7.9-10.1s-8.1 5.2-8.1 10.3zM158.2 32.8c0-3.1-.1-5.8-.2-8.2h4.2l.2 5.2h.2c1.2-3.5 4.1-5.8 7.3-5.8.5 0 .9.1 1.4.2v4.5c-.5-.1-1-.2-1.6-.2-3.4 0-5.8 2.6-6.5 6.2-.1.7-.2 1.4-.2 2.2V51h-4.8V32.8zM173.5 12.3h4.8V51h-4.8V12.3zM206.5 12.3v31.9c0 2.3.1 5 .2 6.8h-4.3l-.2-4.6h-.2c-1.5 2.9-4.7 5.2-9 5.2-6.4 0-11.3-5.4-11.3-13.4-.1-8.8 5.4-14.2 11.9-14.2 4 0 6.8 1.9 8 4h.1V12.3h4.8zm-4.8 23.1c0-.6-.1-1.4-.2-2a7 7 0 00-6.9-5.6c-5 0-7.9 4.4-7.9 10.2 0 5.3 2.6 9.8 7.8 9.8 3.2 0 6.2-2.1 7.1-5.7.2-.7.2-1.3.2-2.1v-4.6zM42.8 64c.1 1.6-1.1 2.9-3.1 2.9-1.7 0-2.9-1.3-2.9-2.9 0-1.7 1.3-3 3-3 1.9 0 3 1.3 3 3zm-5.4 33.8V71.4h4.8v26.4h-4.8zM47.5 78.6c0-2.7-.1-5-.2-7.1h4.3l.3 4.4h.1c1.3-2.5 4.4-5 8.8-5 3.7 0 9.4 2.2 9.4 11.2v15.8h-4.8V82.6c0-4.3-1.6-7.8-6.1-7.8-3.2 0-5.6 2.2-6.5 4.9-.2.6-.3 1.4-.3 2.2v15.9h-4.8V78.6zM84 61.6c2.9-.4 6.3-.8 10.1-.8 6.8 0 11.7 1.6 14.9 4.6 3.3 3 5.2 7.3 5.2 13.2 0 6-1.9 10.9-5.3 14.3-3.4 3.4-9.1 5.3-16.3 5.3-3.4 0-6.2-.2-8.6-.4V61.6zm4.8 32.5c1.2.2 3 .3 4.8.3 10.2 0 15.7-5.7 15.7-15.6.1-8.7-4.9-14.2-14.9-14.2-2.5 0-4.3.2-5.6.5v29zM132.1 97.8l-.4-3.3h-.2a9.79 9.79 0 01-8.1 3.9c-5.4 0-8.1-3.8-8.1-7.6 0-6.4 5.7-9.9 15.9-9.8v-.5c0-2.2-.6-6.1-6-6.1-2.5 0-5 .8-6.9 2l-1.1-3.2c2.2-1.4 5.4-2.3 8.7-2.3 8.1 0 10.1 5.5 10.1 10.8v9.9c0 2.3.1 4.5.4 6.3h-4.3zm-.7-13.4c-5.3-.1-11.2.8-11.2 5.9 0 3.1 2.1 4.6 4.5 4.6 3.4 0 5.6-2.2 6.4-4.4.2-.5.3-1 .3-1.5v-4.6zM146.6 63.9v7.6h6.9v3.7h-6.9v14.2c0 3.3.9 5.1 3.6 5.1 1.3 0 2.2-.2 2.8-.3l.2 3.6c-.9.4-2.4.7-4.3.7-2.2 0-4-.7-5.2-2-1.4-1.4-1.9-3.8-1.9-6.9V75.1h-4.1v-3.7h4.1v-6.3l4.8-1.2zM171.4 97.8l-.4-3.3h-.2a9.79 9.79 0 01-8.1 3.9c-5.4 0-8.1-3.8-8.1-7.6 0-6.4 5.7-9.9 15.9-9.8v-.5c0-2.2-.6-6.1-6-6.1-2.5 0-5 .8-6.9 2l-1.1-3.2c2.2-1.4 5.4-2.3 8.7-2.3 8.1 0 10.1 5.5 10.1 10.8v9.9c0 2.3.1 4.5.4 6.3h-4.3zm-.7-13.4c-5.3-.1-11.2.8-11.2 5.9 0 3.1 2.1 4.6 4.5 4.6 3.4 0 5.6-2.2 6.4-4.4.2-.5.3-1 .3-1.5v-4.6z"/></g></g></a></g><a href="https://ourworldindata.org/grapher/who-vs-gbd-incidence-of-tetanus" target="_blank"><text font-size="25.2" x="15" y="35.2" fill="#555"><tspan x="15" y="35.16">WHO vs. IHME incidence of tetanus</tspan></text></a><text font-size="14.4" x="15" y="53.7" fill="#666"><tspan x="15" y="53.72">Comparison of the incidence of tetanus as published by the World Health Organization (WHO) and Institute for Health</tspan><tspan x="15" y="69.56">Metrics and Evaluation, Global Burden of Disease (GBD). The WHO reports the number of confirmed cases, while the</tspan><tspan x="15" y="85.4">IHME corrects for unreported cases in their estimates.</tspan></text></g><g class="LineChart"><defs><clipPath id="a"><path d="M115.95 0h830v897.8h-830z"/></clipPath></defs><g class="AxisBoxView"><g class="HorizontalAxis" fill="#666" text-anchor="middle" font-size="16.2"><text x="125.9" y="556.5">1980</text><text x="189.7" y="556.5">1985</text><text x="253.4" y="556.5">1990</text><text x="317.1" y="556.5">1995</text><text x="380.9" y="556.5">2000</text><text x="444.6" y="556.5">2005</text><text x="508.3" y="556.5">2010</text><text x="584.8" y="556.5">2016</text></g><g class="VerticalAxis"><text x="120.95" y="535.3" fill="#666" dominant-baseline="middle" text-anchor="end" font-size="16.2">0 cases</text><text x="120.95" y="482.6" fill="#666" dominant-baseline="middle" text-anchor="end" font-size="16.2">100,000 cases</text><text x="120.95" y="429.8" fill="#666" dominant-baseline="middle" text-anchor="end" font-size="16.2">200,000 cases</text><text x="120.95" y="377.1" fill="#666" dominant-baseline="middle" text-anchor="end" font-size="16.2">300,000 cases</text><text x="120.95" y="324.4" fill="#666" dominant-baseline="middle" text-anchor="end" font-size="16.2">400,000 cases</text><text x="120.95" y="271.7" fill="#666" dominant-baseline="middle" text-anchor="end" font-size="16.2">500,000 cases</text><text x="120.95" y="218.9" fill="#666" dominant-baseline="middle" text-anchor="end" font-size="16.2">600,000 cases</text><text x="120.95" y="166.2" fill="#666" dominant-baseline="middle" text-anchor="end" font-size="16.2">700,000 cases</text><text x="120.95" y="113.5" fill="#666" dominant-baseline="middle" text-anchor="end" font-size="16.2">800,000 cases</text><text x="15" y="99.6" style="text-transform:uppercase" class="clickable" font-size="12" cursor="pointer">linear</text></g><g class="AxisGridLines"><path stroke="#ccc" d="M125.95 535.3h458.86"/><path stroke="#ddd" stroke-dasharray="3,2" d="M125.95 482.6h458.86M125.95 429.8h458.86M125.95 377.1h458.86M125.95 324.4h458.86M125.95 271.7h458.86M125.95 218.9h458.86M125.95 166.2h458.86M125.95 113.5h458.86"/></g></g><g clip-path="url(#a)"><g class="HeightedLegend clickable"><g class="legendMark"><text font-size="13.5" x="589.8" y="491.8" fill="#ca2628"><tspan x="589.81" y="491.75">World - Incidence of Tetanus (GBD)</tspan></text></g><g class="legendMark"><text font-size="13.5" x="589.8" y="526.5" fill="#3360a9"><tspan x="589.81" y="526.55">World - Confirmed tetanus cases</tspan><tspan x="589.81" y="541.4">(WHO)</tspan></text></g></g><g class="Lines"><g class="key-World_0"><path stroke="#3360a9" stroke-linecap="round" d="M126 475l13 4 12-5 13 9 13 5 13-8 12 10 13 5 13 2 13-3 12 7 13 10 13 3 13-1 12-3 13 18 13 1 13-6 12 2 13 2 13-4 13 1 12-5 13 9h13l13-1h12l13-2 13 2 13 2h25l13 1 13-2 12 1 13 1" fill="none" stroke-width="1.5"/><g fill="#3360a9"><circle cx="126" cy="475" r="2"/><circle cx="139" cy="479" r="2"/><circle cx="151" cy="474" r="2"/><circle cx="164" cy="483" r="2"/><circle cx="177" cy="488" r="2"/><circle cx="190" cy="480" r="2"/><circle cx="202" cy="490" r="2"/><circle cx="215" cy="495" r="2"/><circle cx="228" cy="497" r="2"/><circle cx="241" cy="494" r="2"/><circle cx="253" cy="501" r="2"/><circle cx="266" cy="511" r="2"/><circle cx="279" cy="514" r="2"/><circle cx="292" cy="513" r="2"/><circle cx="304" cy="510" r="2"/><circle cx="317" cy="528" r="2"/><circle cx="330" cy="529" r="2"/><circle cx="343" cy="523" r="2"/><circle cx="355" cy="525" r="2"/><circle cx="368" cy="527" r="2"/><circle cx="381" cy="523" r="2"/><circle cx="394" cy="524" r="2"/><circle cx="406" cy="519" r="2"/><circle cx="419" cy="528" r="2"/><circle cx="432" cy="528" r="2"/><circle cx="445" cy="527" r="2"/><circle cx="457" cy="527" r="2"/><circle cx="470" cy="525" r="2"/><circle cx="483" cy="527" r="2"/><circle cx="496" cy="529" r="2"/><circle cx="508" cy="529" r="2"/><circle cx="521" cy="529" r="2"/><circle cx="534" cy="530" r="2"/><circle cx="547" cy="528" r="2"/><circle cx="559" cy="529" r="2"/><circle cx="572" cy="530" r="2"/></g></g><g class="key-World_1"><path stroke="#ca2628" stroke-linecap="round" d="M253 108l13 35 13 29 13 24 12 22 13 16 13 22 13 18 12 16 13 14 13 11 13 24 12 19 13 17 13 15 13 13 12 13 13 13 13 10 13 9 12 7 13 8 13 6 13 6 12 5 13 4 13 4" fill="none" stroke-width="1.5"/><g fill="#ca2628"><circle cx="253" cy="108" r="2"/><circle cx="266" cy="143" r="2"/><circle cx="279" cy="172" r="2"/><circle cx="292" cy="196" r="2"/><circle cx="304" cy="218" r="2"/><circle cx="317" cy="234" r="2"/><circle cx="330" cy="256" r="2"/><circle cx="343" cy="274" r="2"/><circle cx="355" cy="290" r="2"/><circle cx="368" cy="304" r="2"/><circle cx="381" cy="315" r="2"/><circle cx="394" cy="339" r="2"/><circle cx="406" cy="358" r="2"/><circle cx="419" cy="375" r="2"/><circle cx="432" cy="390" r="2"/><circle cx="445" cy="403" r="2"/><circle cx="457" cy="416" r="2"/><circle cx="470" cy="429" r="2"/><circle cx="483" cy="439" r="2"/><circle cx="496" cy="448" r="2"/><circle cx="508" cy="455" r="2"/><circle cx="521" cy="463" r="2"/><circle cx="534" cy="469" r="2"/><circle cx="547" cy="475" r="2"/><circle cx="559" cy="480" r="2"/><circle cx="572" cy="484" r="2"/><circle cx="585" cy="488" r="2"/></g></g></g></g></g><g class="SourcesFooter" fill="#777"><g class="clickable" fill="#777"><text font-size="12.6" x="15" y="581.6"><tspan x="15" y="581.58">Source: WHO, Global Health Observatory Data Repository; IHME, Global Burden of Disease</tspan></text></g><text font-size="12.6" x="775.4" y="581.6"><tspan x="775.4" y="581.58"><a class="cclogo" href="http://creativecommons.org/licenses/by-sa/4.0/deed.en_US" target="_blank" fill="#777">CC BY-SA</a></tspan></text></g></g></svg>

<svg xmlns="http://www.w3.org/2000/svg" version="1.1" style="font-family:&#x27;Helvetica Neue&#x27;, Helvetica, Arial, sans-serif;font-size:18px;background-color:white;text-rendering:optimizeLegibility;-webkit-font-smoothing:antialiased" width="850" height="600"><g class="ChartTab"><g class="HeaderView"><g opacity="0.8" transform="translate(778, 15) scale(0.27)"><a xmlns:xlink="http://www.w3.org/1999/xlink" xlink:href="https://ourworldindata.org" target="_blank"><g><rect x="0" y="0" fill="#1B2543" width="211.2" height="130.1"/><rect x="0" y="112.2" fill="#E63912" width="211.2" height="17.9"/><g><rect x="1.2" y="12.3" fill="none" width="210.2" height="99.2"/><path fill="#FFFFFF" d="M37.8,32.2c0,12.7-7.7,19.4-17.1,19.4c-9.7,0-16.6-7.5-16.6-18.7c0-11.7,7.3-19.3,17.1-19.3 C31.3,13.7,37.8,21.3,37.8,32.2z M9.2,32.8c0,7.9,4.3,14.9,11.8,14.9c7.5,0,11.8-6.9,11.8-15.3c0-7.3-3.8-14.9-11.8-14.9 C13.1,17.5,9.2,24.8,9.2,32.8z"/><path fill="#FFFFFF" d="M62.7,43.8c0,2.7,0.1,5.1,0.2,7.2h-4.3l-0.3-4.3h-0.1c-1.3,2.1-4,4.9-8.8,4.9c-4.2,0-9.1-2.3-9.1-11.6 V24.6h4.8v14.6c0,5,1.5,8.4,5.9,8.4c3.2,0,5.5-2.2,6.3-4.4c0.3-0.7,0.4-1.6,0.4-2.5V24.6h4.8V43.8z"/><path fill="#FFFFFF" d="M67.3,32.8c0-3.1-0.1-5.8-0.2-8.2h4.2l0.2,5.2h0.2c1.2-3.5,4.1-5.8,7.3-5.8c0.5,0,0.9,0.1,1.4,0.2v4.5 c-0.5-0.1-1-0.2-1.6-0.2c-3.4,0-5.8,2.6-6.5,6.2c-0.1,0.7-0.2,1.4-0.2,2.2V51h-4.8V32.8z"/><path fill="#FFFFFF" d="M95.4,51l-9.4-36.8h5l4.4,18.6c1.1,4.6,2.1,9.2,2.7,12.7h0.1c0.6-3.7,1.8-8,3-12.8l4.9-18.5h5l4.5,18.7 c1,4.4,2,8.7,2.6,12.6h0.1c0.8-4,1.8-8.1,3-12.7l4.9-18.5h4.9L120.6,51h-5L111,31.9c-1.1-4.7-1.9-8.3-2.4-12h-0.1 c-0.7,3.7-1.5,7.3-2.8,12L100.4,51H95.4z"/><path fill="#FFFFFF" d="M154.9,37.6c0,9.8-6.8,14-13.2,14c-7.2,0-12.7-5.2-12.7-13.6c0-8.8,5.8-14,13.1-14 C149.8,24,154.9,29.5,154.9,37.6z M133.9,37.9c0,5.8,3.3,10.1,8,10.1c4.6,0,8-4.3,8-10.3c0-4.5-2.2-10.1-7.9-10.1 C136.3,27.6,133.9,32.8,133.9,37.9z"/><path fill="#FFFFFF" d="M158.2,32.8c0-3.1-0.1-5.8-0.2-8.2h4.2l0.2,5.2h0.2c1.2-3.5,4.1-5.8,7.3-5.8c0.5,0,0.9,0.1,1.4,0.2v4.5 c-0.5-0.1-1-0.2-1.6-0.2c-3.4,0-5.8,2.6-6.5,6.2c-0.1,0.7-0.2,1.4-0.2,2.2V51h-4.8V32.8z"/><path fill="#FFFFFF" d="M173.5,12.3h4.8V51h-4.8V12.3z"/><path fill="#FFFFFF" d="M206.5,12.3v31.9c0,2.3,0.1,5,0.2,6.8h-4.3l-0.2-4.6H202c-1.5,2.9-4.7,5.2-9,5.2 c-6.4,0-11.3-5.4-11.3-13.4c-0.1-8.8,5.4-14.2,11.9-14.2c4,0,6.8,1.9,8,4h0.1V12.3H206.5z M201.7,35.4c0-0.6-0.1-1.4-0.2-2 c-0.7-3.1-3.3-5.6-6.9-5.6c-5,0-7.9,4.4-7.9,10.2c0,5.3,2.6,9.8,7.8,9.8c3.2,0,6.2-2.1,7.1-5.7c0.2-0.7,0.2-1.3,0.2-2.1V35.4z"/><path fill="#FFFFFF" d="M42.8,64c0.1,1.6-1.1,2.9-3.1,2.9c-1.7,0-2.9-1.3-2.9-2.9c0-1.7,1.3-3,3-3C41.7,61,42.8,62.3,42.8,64z M37.4,97.8V71.4h4.8v26.4H37.4z"/><path fill="#FFFFFF" d="M47.5,78.6c0-2.7-0.1-5-0.2-7.1h4.3l0.3,4.4h0.1c1.3-2.5,4.4-5,8.8-5c3.7,0,9.4,2.2,9.4,11.2v15.8h-4.8 V82.6c0-4.3-1.6-7.8-6.1-7.8c-3.2,0-5.6,2.2-6.5,4.9c-0.2,0.6-0.3,1.4-0.3,2.2v15.9h-4.8V78.6z"/><path fill="#FFFFFF" d="M84,61.6c2.9-0.4,6.3-0.8,10.1-0.8c6.8,0,11.7,1.6,14.9,4.6c3.3,3,5.2,7.3,5.2,13.2c0,6-1.9,10.9-5.3,14.3 c-3.4,3.4-9.1,5.3-16.3,5.3c-3.4,0-6.2-0.2-8.6-0.4V61.6z M88.8,94.1c1.2,0.2,3,0.3,4.8,0.3c10.2,0,15.7-5.7,15.7-15.6 c0.1-8.7-4.9-14.2-14.9-14.2c-2.5,0-4.3,0.2-5.6,0.5V94.1z"/><path fill="#FFFFFF" d="M132.1,97.8l-0.4-3.3h-0.2c-1.5,2.1-4.3,3.9-8.1,3.9c-5.4,0-8.1-3.8-8.1-7.6c0-6.4,5.7-9.9,15.9-9.8v-0.5 c0-2.2-0.6-6.1-6-6.1c-2.5,0-5,0.8-6.9,2l-1.1-3.2c2.2-1.4,5.4-2.3,8.7-2.3c8.1,0,10.1,5.5,10.1,10.8v9.9c0,2.3,0.1,4.5,0.4,6.3 H132.1z M131.4,84.4c-5.3-0.1-11.2,0.8-11.2,5.9c0,3.1,2.1,4.6,4.5,4.6c3.4,0,5.6-2.2,6.4-4.4c0.2-0.5,0.3-1,0.3-1.5V84.4z"/><path fill="#FFFFFF" d="M146.6,63.9v7.6h6.9v3.7h-6.9v14.2c0,3.3,0.9,5.1,3.6,5.1c1.3,0,2.2-0.2,2.8-0.3l0.2,3.6 c-0.9,0.4-2.4,0.7-4.3,0.7c-2.2,0-4-0.7-5.2-2c-1.4-1.4-1.9-3.8-1.9-6.9V75.1h-4.1v-3.7h4.1v-6.3L146.6,63.9z"/><path fill="#FFFFFF" d="M171.4,97.8l-0.4-3.3h-0.2c-1.5,2.1-4.3,3.9-8.1,3.9c-5.4,0-8.1-3.8-8.1-7.6c0-6.4,5.7-9.9,15.9-9.8v-0.5 c0-2.2-0.6-6.1-6-6.1c-2.5,0-5,0.8-6.9,2l-1.1-3.2c2.2-1.4,5.4-2.3,8.7-2.3c8.1,0,10.1,5.5,10.1,10.8v9.9c0,2.3,0.1,4.5,0.4,6.3 H171.4z M170.7,84.4c-5.3-0.1-11.2,0.8-11.2,5.9c0,3.1,2.1,4.6,4.5,4.6c3.4,0,5.6-2.2,6.4-4.4c0.2-0.5,0.3-1,0.3-1.5V84.4z"/></g></g></a></g><a href="https://ourworldindata.org/grapher/who-vs-gbd-incidence-of-tetanus" target="_blank"><text font-size="25.20" x="15.0" y="35.2" fill="#555"><tspan x="15" y="35.160000000000004">WHO vs. IHME incidence of tetanus</tspan></text></a><text font-size="14.40" x="15.0" y="53.7" fill="#666"><tspan x="15" y="53.72">Comparison of the incidence of tetanus as published by the World Health Organization (WHO) and Institute for Health</tspan><tspan x="15" y="69.56">Metrics and Evaluation, Global Burden of Disease (GBD). The WHO reports the number of confirmed cases, while the</tspan><tspan x="15" y="85.4">IHME corrects for unreported cases in their estimates.</tspan></text></g><g class="LineChart"><defs><clipPath id="boundsClip-2"><rect x="115.94800000000001" y="0" width="830" height="897.8"></rect></clipPath></defs><g class="AxisBoxView"><g class="HorizontalAxis"><text x="125.9" y="556.5" fill="#666" text-anchor="middle" font-size="16.2">1980</text><text x="189.7" y="556.5" fill="#666" text-anchor="middle" font-size="16.2">1985</text><text x="253.4" y="556.5" fill="#666" text-anchor="middle" font-size="16.2">1990</text><text x="317.1" y="556.5" fill="#666" text-anchor="middle" font-size="16.2">1995</text><text x="380.9" y="556.5" fill="#666" text-anchor="middle" font-size="16.2">2000</text><text x="444.6" y="556.5" fill="#666" text-anchor="middle" font-size="16.2">2005</text><text x="508.3" y="556.5" fill="#666" text-anchor="middle" font-size="16.2">2010</text><text x="584.8" y="556.5" fill="#666" text-anchor="middle" font-size="16.2">2016</text></g><g class="VerticalAxis"><text x="120.95" y="535.3" fill="#666" dominant-baseline="middle" text-anchor="end" font-size="16.2">0 cases</text><text x="120.95" y="482.6" fill="#666" dominant-baseline="middle" text-anchor="end" font-size="16.2">100,000 cases</text><text x="120.95" y="429.8" fill="#666" dominant-baseline="middle" text-anchor="end" font-size="16.2">200,000 cases</text><text x="120.95" y="377.1" fill="#666" dominant-baseline="middle" text-anchor="end" font-size="16.2">300,000 cases</text><text x="120.95" y="324.4" fill="#666" dominant-baseline="middle" text-anchor="end" font-size="16.2">400,000 cases</text><text x="120.95" y="271.7" fill="#666" dominant-baseline="middle" text-anchor="end" font-size="16.2">500,000 cases</text><text x="120.95" y="218.9" fill="#666" dominant-baseline="middle" text-anchor="end" font-size="16.2">600,000 cases</text><text x="120.95" y="166.2" fill="#666" dominant-baseline="middle" text-anchor="end" font-size="16.2">700,000 cases</text><text x="120.95" y="113.5" fill="#666" dominant-baseline="middle" text-anchor="end" font-size="16.2">800,000 cases</text><text x="15" y="99.60000000000001" style="font-size:12px;text-transform:uppercase;cursor:pointer" class="clickable">linear</text></g><g class="AxisGridLines"><line x1="125.95" y1="535.3" x2="584.81" y2="535.3" stroke="#ccc"></line><line x1="125.95" y1="482.6" x2="584.81" y2="482.6" stroke="#ddd" stroke-dasharray="3,2"></line><line x1="125.95" y1="429.8" x2="584.81" y2="429.8" stroke="#ddd" stroke-dasharray="3,2"></line><line x1="125.95" y1="377.1" x2="584.81" y2="377.1" stroke="#ddd" stroke-dasharray="3,2"></line><line x1="125.95" y1="324.4" x2="584.81" y2="324.4" stroke="#ddd" stroke-dasharray="3,2"></line><line x1="125.95" y1="271.7" x2="584.81" y2="271.7" stroke="#ddd" stroke-dasharray="3,2"></line><line x1="125.95" y1="218.9" x2="584.81" y2="218.9" stroke="#ddd" stroke-dasharray="3,2"></line><line x1="125.95" y1="166.2" x2="584.81" y2="166.2" stroke="#ddd" stroke-dasharray="3,2"></line><line x1="125.95" y1="113.5" x2="584.81" y2="113.5" stroke="#ddd" stroke-dasharray="3,2"></line></g></g><g clip-path="url(#boundsClip-2)"><g class="HeightedLegend clickable"><g class="legendMark"><rect x="584.81" y="480.95" width="250.19000000000003" height="13.5" fill="#fff" opacity="0"></rect><text font-size="13.50" x="589.8" y="491.8" fill="#ca2628"><tspan x="589.81" y="491.75">World - Incidence of Tetanus (GBD)</tspan></text></g><g class="legendMark"><rect x="584.81" y="515.75" width="232.10000000000002" height="28.1" fill="#fff" opacity="0"></rect><text font-size="13.50" x="589.8" y="526.5" fill="#3360a9"><tspan x="589.81" y="526.55">World - Confirmed tetanus cases</tspan><tspan x="589.81" y="541.4">(WHO)</tspan></text></g></g><g class="Lines"><rect x="126" y="108" width="459" height="428" fill="rgba(255,255,255,0)" opacity="0"></rect><g class="key-World_0"><path stroke="#3360a9" stroke-linecap="round" d="M126 475L139 479L151 474L164 483L177 488L190 480L202 490L215 495L228 497L241 494L253 501L266 511L279 514L292 513L304 510L317 528L330 529L343 523L355 525L368 527L381 523L394 524L406 519L419 528L432 528L445 527L457 527L470 525L483 527L496 529L508 529L521 529L534 530L547 528L559 529L572 530" fill="none" stroke-width="1.5"></path><g fill="#3360a9"><circle cx="126" cy="475" r="2"></circle><circle cx="139" cy="479" r="2"></circle><circle cx="151" cy="474" r="2"></circle><circle cx="164" cy="483" r="2"></circle><circle cx="177" cy="488" r="2"></circle><circle cx="190" cy="480" r="2"></circle><circle cx="202" cy="490" r="2"></circle><circle cx="215" cy="495" r="2"></circle><circle cx="228" cy="497" r="2"></circle><circle cx="241" cy="494" r="2"></circle><circle cx="253" cy="501" r="2"></circle><circle cx="266" cy="511" r="2"></circle><circle cx="279" cy="514" r="2"></circle><circle cx="292" cy="513" r="2"></circle><circle cx="304" cy="510" r="2"></circle><circle cx="317" cy="528" r="2"></circle><circle cx="330" cy="529" r="2"></circle><circle cx="343" cy="523" r="2"></circle><circle cx="355" cy="525" r="2"></circle><circle cx="368" cy="527" r="2"></circle><circle cx="381" cy="523" r="2"></circle><circle cx="394" cy="524" r="2"></circle><circle cx="406" cy="519" r="2"></circle><circle cx="419" cy="528" r="2"></circle><circle cx="432" cy="528" r="2"></circle><circle cx="445" cy="527" r="2"></circle><circle cx="457" cy="527" r="2"></circle><circle cx="470" cy="525" r="2"></circle><circle cx="483" cy="527" r="2"></circle><circle cx="496" cy="529" r="2"></circle><circle cx="508" cy="529" r="2"></circle><circle cx="521" cy="529" r="2"></circle><circle cx="534" cy="530" r="2"></circle><circle cx="547" cy="528" r="2"></circle><circle cx="559" cy="529" r="2"></circle><circle cx="572" cy="530" r="2"></circle></g></g><g class="key-World_1"><path stroke="#ca2628" stroke-linecap="round" d="M253 108L266 143L279 172L292 196L304 218L317 234L330 256L343 274L355 290L368 304L381 315L394 339L406 358L419 375L432 390L445 403L457 416L470 429L483 439L496 448L508 455L521 463L534 469L547 475L559 480L572 484L585 488" fill="none" stroke-width="1.5"></path><g fill="#ca2628"><circle cx="253" cy="108" r="2"></circle><circle cx="266" cy="143" r="2"></circle><circle cx="279" cy="172" r="2"></circle><circle cx="292" cy="196" r="2"></circle><circle cx="304" cy="218" r="2"></circle><circle cx="317" cy="234" r="2"></circle><circle cx="330" cy="256" r="2"></circle><circle cx="343" cy="274" r="2"></circle><circle cx="355" cy="290" r="2"></circle><circle cx="368" cy="304" r="2"></circle><circle cx="381" cy="315" r="2"></circle><circle cx="394" cy="339" r="2"></circle><circle cx="406" cy="358" r="2"></circle><circle cx="419" cy="375" r="2"></circle><circle cx="432" cy="390" r="2"></circle><circle cx="445" cy="403" r="2"></circle><circle cx="457" cy="416" r="2"></circle><circle cx="470" cy="429" r="2"></circle><circle cx="483" cy="439" r="2"></circle><circle cx="496" cy="448" r="2"></circle><circle cx="508" cy="455" r="2"></circle><circle cx="521" cy="463" r="2"></circle><circle cx="534" cy="469" r="2"></circle><circle cx="547" cy="475" r="2"></circle><circle cx="559" cy="480" r="2"></circle><circle cx="572" cy="484" r="2"></circle><circle cx="585" cy="488" r="2"></circle></g></g></g></g></g><g class="SourcesFooter" style="fill:#777"><g class="clickable" style="fill:#777"><text font-size="12.60" x="15.0" y="581.6"><tspan x="15" y="581.58">Source: WHO, Global Health Observatory Data Repository; IHME, Global Burden of Disease</tspan></text></g><text font-size="12.60" x="775.4" y="581.6"><tspan x="775.402" y="581.58"><a style="fill: #777;" class="cclogo" href="http://creativecommons.org/licenses/by-sa/4.0/deed.en_US" target="_blank">CC BY-SA</a></tspan></text></g></g></svg>
